!!!COM:	Ockeghem, Johannes
!!!CDT:	~1425-1497/02/06
!!!OPR:	Missa De plus en plus
!!!ONM:	4
!!!OTL:	Sanctus
!!!AGN:	Mass; Sanctus
!!!SCT:	Ock1005d
!!!voices:	4
!!!voices-OPR:	4
**kern	**kern	**kern	**kern
*staff4	*staff3	*staff2	*staff1
*Ivox	*Ivox	*Ivox	*Ivox
*I"Bassus	*I"Tenor	*I"Altus	*I"Superius
*I'B	*I'T	*I'A	*I'S
*clefF4	*clefGv2	*clefGv2	*clefG2
*>[A,B,C,D,E,C]	*>[A,B,C,D,E,C]	*>[A,B,C,D,E,C]	*>[A,B,C,D,E,C]
*>A	*>A	*>A	*>A
*k[]	*k[]	*k[]	*k[]
*M3/1	*M3/1	*M3/1	*M3/1
*met(O)	*met(O.)	*met(O)	*met(O)
!!primary-mensuration: met(O)
*	*rscale:1/2	*	*
=1-	=1-	=1-	=1-
!!section: Sanctus
!!!OMD: Sanctus
0.r	0.r	[0.G	0.g
=2	=2-	=2	=2
0.r	0.r	1G]	2e/
.	.	.	2d/
.	.	1A	2f/
.	.	.	4e/
.	.	.	4f/
.	.	2G/	2g/
.	.	[2c\	2e/
=3	=3-	=3	=3
0.r	0.r	2c\]	1d
.	.	2B\	.
.	.	2c\	2r
.	.	1A	1c
.	.	2G/	2B/
=4	=4	=4	=4
0.r	0.r	1F	2A/
.	.	.	1d
.	.	1G	.
.	.	.	1e
.	.	2D/	.
.	.	[2G/	2d/
=5	=5-	=5	=5
0.r	0.r	1.G]	2B/
.	.	.	2G/
.	.	.	1A
.	.	2F#i/	.
.	.	[1G	1G
=6	=6-	=6	=6
0.r	0.r	2G/]	1r
.	.	2A/	.
.	.	2B\	1g
.	.	2c\	.
.	.	1B	1g
=7	=7	=7	=7
!!linebreak:original
0.r	0.r	0A	1.a
.	.	.	2f#i/
.	.	[1d;	[1f#i;
=8	=8-	=8	=8
0.r	0.r	0.d]	0.f#]
=9	=9-	=9	=9
0.r	0.r	0.r	0.r
=10	=10	=10	=10
0.r	0.r	0.d	1.f#i
.	.	.	2g/
.	.	.	2a/
.	.	.	2b\
=11	=11-	=11	=11
0.r	0.r	1d	2a/
.	.	.	1dd
.	.	2B\	.
.	.	2c\	2.cc\
.	.	1d	.
.	.	.	4a/
.	.	.	2b\
=12	=12-	=12	=12
0.r	0.r	0c	1cc
.	.	.	2a/
.	.	.	2g/
.	.	1A	2r
.	.	.	2cc\
=13	=13	=13	=13
0.r	0.r	1G	2b\
.	.	.	1dd
.	.	2B\	.
.	.	1c	2cc\
.	.	.	2a/
.	.	[2e\	2g/
=14	=14-	=14	=14
!!linebreak:original
0.r	0.r	2e\]	1cc
.	.	1d	.
.	.	.	2b\
.	.	2c\	1a
.	.	1B	.
.	.	.	2g/
=15	=15-	=15	=15
0.r	0.r	1A	2f/
.	.	.	2.a/
.	.	2c\	.
.	.	.	4g/
.	.	2d\	2f/
.	.	2e\	1e
.	.	2c\	.
=16	=16	=16	=16
0.r	0.r	1d	2d/
.	.	.	2f/
.	.	2c\	2e/
.	.	2.d\	2d/
.	.	.	1e
.	.	4B\	.
.	.	2c\	.
=17	=17-	=17	=17
0.r	0.r	2.d\	2f/
.	.	.	1d
.	.	4c\	.
.	.	2d\	.
.	.	2B\	2.g/
.	.	2G/	.
.	.	.	4a/
.	.	[2d\	[2b\
=18	=18-	=18	=18
0.r	0.r	2d\]	2b\]
.	.	2c\	1a
.	.	2d\	.
.	.	2G/	1g
.	.	1A	.
.	.	.	2f#i/
=19	=19	=19	=19
0.r	0.G	1G	1.g
.	.	1r	.
.	.	.	2f/
.	.	1g	1e
=20	=20-	=20	=20
!	!LO:N:vis=0.	!	!
1.G	[y0.B	0.g	0d
2F\	.	.	.
1E	.	.	1r
=21	=21-	=21	=21
!!pagebreak:original
1D	0.B]yy	1f	1f
0G	.	0e	0g
=22	=22	=22	=22
!	!LO:N:vis=0	!	!
0.F	[y0.c	1.f	0.a
.	.	2e\	.
.	.	1c	.
=23	=23-	=23	=23
1E	1c]yy	1r	1g
0C	0e	0g	1.cc
.	.	.	2a/
=24	=24-	=24	=24
0G	0d	1.g	2b\
.	.	.	1dd
.	.	2f\	2cc\
1r	1c	2e\	2.a/
.	.	2d\	.
.	.	.	4g/
=25	=25	=25	=25
1r	1B	1.d	1g
0D	0A	.	2r
.	.	2c\	1f
.	.	1A	.
.	.	.	4e/
.	.	.	4f/
=26	=26-	=26	=26
0.GG	[0.G	1d	2.g/
.	.	.	4f/
.	.	2B\	0d
.	.	1B	.
.	.	2G/	.
=27	=27-	=27	=27
0GG	0.G_	2.G/	1r
.	.	4F/	.
.	.	1D	0g
[1C	.	[1E	.
=28	=28	=28	=28
!!linebreak:original
1C]	0.G]	1E]	1.g
0BB	.	1D	.
.	.	.	2f/
.	.	1G	1d
=29	=29-	=29	=29
!	!LO:N:vis=0.	!	!
0AA	[0.c	2.A/	1e
.	.	4G/	.
.	.	1E	1.a
1A	.	1r	.
.	.	.	2g/
=30	=30-	=30	=30
1.A	0.c]	1r	1.e
.	.	1A	.
2G\	.	.	2f/
2.E\	.	1G	[1g
4F\	.	.	.
=31	=31	=31	=31
0G	0B	0d	2g/]
.	.	.	2f/
.	.	.	1d
[1C	[1c	[1e	1r
=32	=32-	=32	=32
1C]	1c]	0.e]	1g
0c	0A	.	1a
.	.	.	1cc
=33	=33-	=33	=33
2e\	0.r	2r	1b
2.d\	.	2f\	.
.	.	2d\	2g/
4B\	.	.	.
2G\	.	1d	1g
1A	.	.	.
.	.	2c\	2f#i/
=34	=34	=34	=34
0.G	1G	1B	1.g
.	0C	1.c	.
.	.	.	1e
.	.	2B\	2c/
=35	=35-	=35	=35
!!linebreak:original
0.r	1E	1G	2.c/
.	.	.	4d/
.	[0D	2r	2.f/
.	.	1F	.
.	.	.	4e/
.	.	.	2.d/
.	.	4E/	.
.	.	4F/	4c/
=36	=36-	=36	=36
2.GG/	0.D]	1.G	2B/
.	.	.	1d
4AA/	.	.	.
2BB/	.	.	.
2C/	.	4F/	2.c/
.	.	4E/	.
1D	.	1F	.
.	.	.	4A/
.	.	.	2B/
=37	=37	=37	=37
1r	[0.C	1G	0c
1.E	.	1A	.
.	.	2G/	1r
2C/	.	[2c\	.
=38	=38-	=38	=38
1C	0.C_	2c\]	1g
.	.	2B\	.
1r	.	1A	1a
1G	.	1r	1g
=39	=39-	=39	=39
1A	0.C]	2.c\	2cc\
.	.	.	1cc
.	.	4d\	.
1G	.	0e	.
.	.	.	2b\
2c\	.	.	1a
[2c\	.	.	.
=40	=40	=40	=40
2c\]	0.r	2r	1g
2B\	.	1d	.
1A	.	.	2r
.	.	2c\	2f/
1G	.	2.B\	2g/
.	.	.	[2d/
.	.	4G/	.
=41	=41-	=41	=41
2F\	0.r	2A/	2d/]
2G\	.	1B	2.g/
2D\	.	.	.
.	.	.	4a/
2.G\	.	2G/	2b\
.	.	[1d	2g/
4A\	.	.	.
2B\	.	.	2d/
=42	=42-	=42	=42
2G\	0.r	1d]	2.g/
2D\	.	.	.
.	.	.	4f/
2.G\	.	1r	2e/
.	.	.	2d/
2F\	.	.	.
.	.	1r	4f/
4G\	.	.	4e/
2A\	.	.	4c/
.	.	.	[4f/
=43	=43	=43	=43
4F\	0.r	0.r	4f/]
4G\	.	.	4e/
4A\	.	.	4f/
4B\	.	.	2g/
1c	.	.	.
.	.	.	4a/
.	.	.	4g/
.	.	.	2cc\
1d	.	.	.
.	.	.	4b\
.	.	.	4b\
.	.	.	4a/
=44	=44-	=44	=44
2c\	0.c	2g\	2.cc\
1F	.	2.a\	.
.	.	.	4b\
.	.	.	4a/
.	.	4g\	4g/
2G\	.	2e\	2g/
1A	.	1f	2r
.	.	.	2a/
=45	=45-	=45	=45
0G	0B	0g	2b\
.	.	.	1dd
.	.	.	2b\
1r	1c	2.e\	2.a/
.	.	4f\	4g/
=46	=46	=46	=46
0G	0d	0g	1b
.	.	.	1g
[1E	[1G	[1c	1r
=47	=47-	=47	=47
1E]	1G]	1c]	1g
0D	0F	0d	1.a
.	.	.	4g/
.	.	.	4a/
=48	=48-	=48	=48
0d	0G	0B	2.g/
.	.	.	4f/
.	.	.	1d
[1G	[1E	[1c	1e
=49	=49	=49	=49
1G]	1E]	1c]	1.g
0A	0D	0d	.
.	.	.	2f#i/
.	.	.	2f#i/
.	.	.	2e/
=50	=50-	=50	=50
[0.Gl	[0.dl	2B\	[0.gl
.	.	1B	.
.	.	2G/	.
.	.	2.B\	.
.	.	4c\	.
=51	=51-	=51	=51
0.G]	0.d]	1d	0.g]
.	.	0dl	.
*	*rscale:1	*	*
!!LO:LB:i:g=z
=52||	=52||	=52||	=52||
*>B	*>B	*>B	*>B
!!section:  Pleni sunt celi
!!!OMD: Pleni sunt celi
*k[]	*k[]	*k[]	*k[]
*M3/1	*M3/1	*M3/1	*M3/1
*met(O)	*met(C.)	*met(O)	*met(O)
1r	0.r	2.G/	1g
.	.	4A/	.
2r	.	2B\	2d/
2.C/	.	2.c\	2.e/
4D\	.	4B\	4f/
2E\	.	2G/	2g/
=53	=53	=53	=53
2.F\	0.r	2.c\	1a
4E\	.	4d\	.
2C/	.	2e\	2g/
2.F\	.	2.f\	2.a/
4G\	.	4e\	4b\
2A\	.	2c\	2cc\
=54	=54	=54	=54
2.B-\	0.r	1g	1dd
4A\	.	.	.
2F\	.	1a	1cc
1c	.	.	.
.	.	2g\	2r
[2d\	.	[2f\	[2a/
=55	=55	=55	=55
2d\]	0.r	2f\]	2a/]
2B\	.	2g\	1g
1A	.	1c	.
.	.	.	1cc
1G	.	1d	.
.	.	.	2b\
=56	=56	=56	=56
0.C	0.r	0c	1cc
.	.	.	2g/
.	.	.	2a/
.	.	2G/	2g/
.	.	2A/	2cc\
=57	=57	=57	=57
0C	0.r	2G/	2r
.	.	1c	2.g/
.	.	.	4a/
.	.	1.G	4g/
.	.	.	4e/
2BB/	.	.	2d/
[2C/	.	.	[2e/
=58	=58	=58	=58
2C/]	0.r	2A/	2e/]
2E\	.	2G/	2c/
2D\	.	2F/	2B/
2C/	.	2E/	2.c/
1D	.	1F	.
.	.	.	4A/
.	.	.	2B/
=59	=59	=59	=59
2C/	0.r	2r	1c
2BB/	.	2G/	.
1AA	.	2A/	2r
.	.	2c\	1e
1GG	.	1B	.
.	.	.	[2d/
=60	=60	=60	=60
2r	0.r	1G	2d/]
1.G	.	.	2e/
.	.	1d	2d/
.	.	.	1g
1A	.	1c	.
.	.	.	2f#i/
=61	=61	=61	=61
2G\	0.r	1.d	1.g
1B	.	.	.
2c\	.	2e\	1a
1A	.	1f	.
.	.	.	2cc\
=62	=62	=62	=62
1G	0.r	0g	2b\
.	.	.	1dd
2B\	.	.	.
2c\	.	.	1cc
1d	.	1f	.
.	.	.	2b\
=63	=63	=63	=63
1c	0.r	1gl	2.cc\
.	.	.	4b\
2r	.	1r	2g/
2.c\	.	.	2.a/
.	.	1r	.
4B\	.	.	4g/
2G\	.	.	2e/
=64	=64	=64	=64
2.A\	0.r	0.r	2.f/
4G\	.	.	4e/
2E\	.	.	2.c/
1F	.	.	.
.	.	.	4d/
.	.	.	4c/
.	.	.	4A/
[2E\	.	.	2G/
=65	=65	=65	=65
4E\]	0.r	0.r	1c
4C/	.	.	.
8D/L	.	.	.
8C/	.	.	.
8BB/	.	.	.
8AA/J	.	.	.
2GG/	.	.	2d/
4r	.	.	4e/
4G\	.	.	4d/
4B\	.	.	4g/
4c\	.	.	2g/
4B\	.	.	.
4G\	.	.	4e/
=66	=66	=66	=66
2A\	0.r	0.r	2f/
2G\	.	.	2g/
2E\	.	.	2r
2F\	.	.	2a/
2G\	.	.	2.g/
2E\	.	.	.
.	.	.	4e/
=67	=67	=67	=67
2A\	0.r	0.r	2f/
2G\	.	.	2e/
2F\	.	.	2a/
2E\	.	.	2g/
2A\	.	.	2f/
4G\	.	.	2e/
4E\	.	.	.
=68	=68	=68	=68
4F\	0.r	0.r	2a/
4G\	.	.	.
2E\	.	.	4g/
.	.	.	4e/
2r	.	.	4f/
.	.	.	4g/
2C/	.	.	2e/
2D\	.	.	2f/
2BB/	.	.	2g/
=69	=69	=69	=69
2C/	0.r	0.r	2e/
2F\	.	.	1d
2G\	.	.	.
4E\	.	.	2c/
4C/	.	.	.
2D\	.	.	2r
2C/	.	.	2g/
=70	=70	=70	=70
2r	0.r	0.r	2a/
2G\	.	.	4g/
.	.	.	2e/
2A\	.	.	.
.	.	.	4f/
2G\	.	.	2g/
2c\	.	.	2r
4r	.	.	2c/
4E\	.	.	.
=71	=71	=71	=71
2F\	0.r	0.r	2d/
2E\	.	.	4c/
.	.	.	2e/
2A\	.	.	.
.	.	.	4d/
4r	.	.	2B/
4D\	.	.	.
2E\	.	.	2c/
2D\	.	.	[2d/
=72	=72	=72	=72
2G\	0.r	0.r	4d/]
.	.	.	2e/
4r	.	.	.
4GG/	.	.	2d/
2AA/	.	.	.
.	.	.	4c/
2.GG/	.	.	4B/
.	.	.	2d/
2C/	.	.	4c/
.	.	.	2A/
[4D\	.	.	.
=73	=73	=73	=73
4D\]	0.r	0.r	4B/
4BB/	.	.	2G/
2AA/	.	.	.
.	.	.	4c/
2GG/	.	.	4B/
.	.	.	2d/
2D\	.	.	.
.	.	.	4f/
2E\	.	.	4e/
.	.	.	4g/
2F\	.	.	4f/
.	.	.	4a/
=74	=74	=74	=74
2.G\	0.r	0.r	4g/
.	.	.	2.e/
2A\	.	.	.
.	.	.	2f/
4G\	.	.	.
2.E\	.	.	4e/
.	.	.	2.c/
2F\	.	.	.
.	.	.	2d/
4E\	.	.	.
=75	=75	=75	=75
2.C/	0.r	0.r	4c/
.	.	.	2.A/
2D\	.	.	.
.	.	.	4B/
4C/	.	.	2c/
2AA/	.	.	.
.	.	.	4A/
2GG/	.	.	2B/
2r	.	.	4G/
.	.	.	[4c/
=76	=76	=76	=76
2.C/	0.r	0.r	4c/]
.	.	.	4d/
.	.	.	4e/
4D\	.	.	4f/
4E\	.	.	2g/
4F\	.	.	.
2.G\	.	.	4r
.	.	.	2G/
4F\	.	.	4A/
4E\	.	.	4B/
8D/L	.	.	4c/
8C/J	.	.	.
=77	=77	=77	=77
4.BB/	0.r	0.r	2d/
8AA/	.	.	.
2C/	.	.	4G/
.	.	.	4c/
4GG/	.	.	4d/
4C/	.	.	4e/
4D\	.	.	2a/
4F\	.	.	.
4E\	.	.	4g/
2A\	.	.	4e/
.	.	.	4f/
4G\	.	.	4g/
=78	=78	=78	=78
4E\	0.r	0.r	2c/
4F\	.	.	.
4G\	.	.	4B/
2C/	.	.	4c/
.	.	.	2G/
2G\	.	.	.
.	.	.	4B/
4F\	.	.	4A/
4G\	.	.	4G/
4C/	.	.	2c/
2D\	.	.	.
.	.	.	4B/
=79	=79	=79	=79
0.Cl	0.r	0.r	0.cl
!!LO:LB:i:g=z
=80||	=80||	=80||	=80||
*>C	*>C	*>C	*>C
!!section: Osanna
!!!OMD: Osanna
*k[]	*k[]	*k[]	*k[]
*M2/1	*M2/1	*M2/1	*M2/1
*met(C|)	*met(C|)	*met(C|)	*met(C|)
[0C	[0c	[0e	[0g
=81	=81	=81	=81
0C]	0c_	0e]	1g]
.	.	.	[1a
=82	=82	=82	=82
1F	0c_	1f	1a]
1E	.	[1g	1g
=83	=83	=83	=83
[0C	0c]	1g]	[0e
.	.	1e	.
=84	=84	=84	=84
0C]	[0G	0c	0e]
=85	=85	=85	=85
1r	0G_	1B	1d
[1C	.	1c	[1e
=86	=86	=86	=86
1C]	0G_	1G	1e]
1BB	.	[1B	[1d
=87	=87	=87	=87
[0GG	0G]	0B_	1d]
.	.	.	[1g
=88	=88	=88	=88
0GG]	[0D	1B]	1g]
.	.	1G	2f/
.	.	.	2e/
=89	=89	=89	=89
0BB	0D]	0G	0d
=90	=90	=90	=90
[0AA	0C	0A	0e
=91	=91	=91	=91
1AA]	0F	0r	1c
[1BB	.	.	[1d
=92	=92	=92	=92
1BB]	0E	[0G	1d]
1C	.	.	[1c
=93	=93	=93	=93
0GG	0D	0G_	2c/]
.	.	.	2A/
.	.	.	1B
=94	=94	=94	=94
1.C	0r	0G]	[0c
2AA/	.	.	.
=95	=95	=95	=95
1C	0G	1E	0c]
1E	.	1C	.
=96	=96	=96	=96
1D	[0F	1D	0r
1BB	.	[1D	.
=97	=97	=97	=97
0AA	0F]	1D]	0a
.	.	1C	.
=98	=98	=98	=98
[0GG	[0G	0D	0b
=99	=99	=99	=99
0GG]	0G]	1E	1.g
.	.	1D	.
.	.	.	2e/
=100	=100	=100	=100
0G	0r	1r	1e
.	.	1G	[1d
=101	=101	=101	=101
1D	0r	1A	0d]
[1G	.	[1B	.
=102	=102	=102	=102
1G]	[0d	1B]	1.g
1A	.	1c	.
.	.	.	2f/
=103	=103	=103	=103
0B	0d]	0G	0d
=104	=104	=104	=104
0A	[0e	0c	1r
.	.	.	1a
=105	=105	=105	=105
1G	0e]	0r	1b
1A	.	.	[1cc
=106	=106	=106	=106
1.c	0e	0r	2cc\]
.	.	.	2b\
.	.	.	[1g
2B\	.	.	.
=107	=107	=107	=107
0G	0d	1.B	1g]
.	.	.	[1b
.	.	2c\	.
=108	=108	=108	=108
0D	1r	1.d	1b]
.	[1d	.	[1a
.	.	2e\	.
=109	=109	=109	=109
1r	1d]	1f	1a]
[1G	1d	[1g	[1b
=110	=110	=110	=110
1G]	1B	1g]	2b\]
.	.	.	2g/
1C	1c	1e	[1g
=111	=111	=111	=111
0D	0A	[0d	1g]
.	.	.	1f#i
=112	=112	=112	=112
[0GG	[0G	0d]	1.g
.	.	.	2f/
=113	=113	=113	=113
0GG_	0G]	[0B	1d
.	.	.	1e
=114	=114	=114	=114
0GG]	0G	0B]	1d
.	.	.	1g
=115	=115	=115	=115
0r	[0D	[0A	1f
.	.	.	[1a
=116	=116	=116	=116
0r	1D]	0A]	2a/]
.	.	.	2g/
.	[1D	.	2f/
.	.	.	2e/
=117	=117	=117	=117
0r	1D]	1r	1d
.	1E	1G	[1c
=118	=118	=118	=118
0r	0A	1A	1c]
.	.	1c	1f
=119	=119	=119	=119
0r	1G	1B	2e/
.	.	.	2d/
.	1F	1A	[1d
=120	=120	=120	=120
0r	0E	0G	2d/]
.	.	.	2B/
.	.	.	1c#i
=121	=121	=121	=121
0r	0Dl	0A	0d
=122	=122	=122	=122
1D	0r	1F	0r
1E	.	1G	.
=123	=123	=123	=123
1F	0r	1A	1d
1G	.	1r	1e
=124	=124	=124	=124
1r	0r	1A	1f
1G	.	1B	1g
=125	=125	=125	=125
1A	0r	1c	1r
1G	.	1d	1g
=126	=126	=126	=126
0c	0r	1.e	1a
.	.	.	[1g
.	.	2c\	.
=127	=127	=127	=127
1B	0r	1d	1g]
1c	.	1e	[1cc
=128	=128	=128	=128
0d	0r	0f	1cc]
.	.	.	1b
=129	=129	=129	=129
[0c	0r	0g	0cc
=130	=130	=130	=130
1c]	0r	1e	1a
1B	.	[1d	[1g
=131	=131	=131	=131
[0G	0r	1d]	1g]
.	.	[1g	1e
=132	=132	=132	=132
1G]	0r	0g]	0d
1B	.	.	.
=133	=133	=133	=133
1c	0r	1r	1g
[1d	.	[1f	[1b
=134	=134	=134	=134
1d]	0r	1f]	2b\]
.	.	.	2a/
1B	.	[1g	[1dd
=135	=135	=135	=135
[0G	0r	1g]	1dd]
.	.	1d	1b
=136	=136	=136	=136
1G]	0r	0e	0g
[1c	.	.	.
=137	=137	=137	=137
1c]	0r	0g	0r
1B	.	.	.
=138	=138	=138	=138
0A	0r	0f	0cc
=139	=139	=139	=139
1G	0r	1e	1b
1F	.	[1d	[1a
=140	=140	=140	=140
0G	0r	0d_	1a]
.	.	.	[1g
=141	=141	=141	=141
0A	0r	1d]	2g/]
.	.	.	2e/
.	.	1c	1f#i
=142	=142	=142	=142
0Gl	0r	0dl	0gl
!!LO:LB:i:g=z
!!LO:TX:rj:i:Y=30:t=fine
=143||	=143||	=143||	=143||
*>D	*>D	*>D	*>D
!!section: Benedictus
!!!OMD: Benedictus
*k[]	*k[]	*k[]	*k[]
*M2/1	*M2/1	*M2/1	*M2/1
*met(C|)	*met(C|)	*met(C|)	*met(C|)
0r	[0c	0r	[0g
=144	=144	=144	=144
0r	0c_	0r	1g]
.	.	.	[1a
=145	=145	=145	=145
0r	0c_	0r	1a]
.	.	.	1g
=146	=146	=146	=146
0r	0c]	0r	1.cc
.	.	.	2dd\
=147	=147	=147	=147
0r	[0d	0r	0b
=148	=148	=148	=148
0r	0d]	0r	1a
.	.	.	[1dd
=149	=149	=149	=149
0r	1B	0r	1dd]
.	1G	.	1b
=150	=150	=150	=150
0r	1.c	0r	1a
.	.	.	1g
.	2d\	.	.
=151	=151	=151	=151
0r	0e	0r	0cc
=152	=152	=152	=152
0r	0d	0r	1b
.	.	.	[1a
=153	=153	=153	=153
0r	0c	0r	1a]
.	.	.	1g
=154	=154	=154	=154
0r	1.d	0r	2f/
.	.	.	1a
.	2B\	.	2g/
=155	=155	=155	=155
0r	1c	0r	1e
.	1d	.	1d
=156	=156	=156	=156
0r	1B	0r	0g
.	[1c	.	.
=157	=157	=157	=157
0r	1c]	0r	1a
.	1A	.	1cc
=158	=158	=158	=158
0r	1.G	0r	1b
.	.	.	[1g
.	2F/	.	.
=159	=159	=159	=159
0r	2E/	0r	2g/]
.	2D/	.	2f/
.	[1G	.	2e/
.	.	.	2d/
=160	=160	=160	=160
0r	2G/]	0r	1.g
.	2A/	.	.
.	2B\	.	.
.	2c\	.	2a/
=161	=161	=161	=161
0r	1d	0r	2b\
.	.	.	2cc\
.	1G	.	1dd
=162	=162	=162	=162
0r	2r	0r	1g
.	1c	.	.
.	.	.	2r
.	2A/	.	2cc\
=163	=163	=163	=163
0r	1G	0r	2b\
.	.	.	1dd
.	1F	.	.
.	.	.	2cc\
=164	=164	=164	=164
0r	2G/	0r	2b\
.	2B\	.	1g
.	2c\	.	.
.	2d\	.	2f/
=165	=165	=165	=165
0r	2e\	0r	2g/
.	2c\	.	2e/
.	2d\	.	2d/
.	2B\	.	2g/
=166	=166	=166	=166
0r	1c	0r	2a/
.	.	.	1g
.	1A	.	.
.	.	.	2f#i/
=167	=167	=167	=167
0r	0Gl	0r	0gl
!!LO:LB:i:g=z
=168||	=168||	=168||	=168||
*>E	*>E	*>E	*>E
!!section: Qui venit
!!!OMD: Qui venit
*k[]	*k[]	*k[]	*k[]
*M2/1	*M2/1	*M2/1	*M2/1
*met(C|)	*met(C|)	*met(C|)	*met(C|)
0G	0r	0r	0r
=169	=169	=169	=169
1F	0r	0r	0r
1E	.	.	.
=170	=170	=170	=170
1D	0r	0r	0r
1BB	.	.	.
=171	=171	=171	=171
1C	0r	0r	0g
1G	.	.	.
=172	=172	=172	=172
1A	0r	0r	1f
[1c	.	.	1e
=173	=173	=173	=173
2c\]	0r	0r	0d
4B\	.	.	.
4A\	.	.	.
[1B	.	.	.
=174	=174	=174	=174
2B\]	0r	0r	1r
4A\	.	.	.
4G\	.	.	.
[1A	.	.	[1c
=175	=175	=175	=175
2A\]	0r	0r	1c]
2G\	.	.	.
[1G	.	.	1B
=176	=176	=176	=176
2G\]	0r	0r	0A
4F\	.	.	.
4E\	.	.	.
1F	.	.	.
=177	=177	=177	=177
2r	0r	0r	1G
1E	.	.	.
.	.	.	1c
4D\	.	.	.
4C/	.	.	.
=178	=178	=178	=178
2E\	0r	0r	1B
2D\	.	.	.
2C/	.	.	2A/
2BB/	.	.	[2G/
=179	=179	=179	=179
1AA	0r	0r	2G/]
.	.	.	2F#i/
2.GG/	.	.	[1G
4AA/	.	.	.
=180	=180	=180	=180
2BB/	0r	0r	2G/]
2C/	.	.	2A/
2GG/	.	.	2B/
2r	.	.	2c/
=181	=181	=181	=181
2.C/	0r	0r	2G/
.	.	.	2r
4D\	.	.	.
2E\	.	.	2.c/
2F\	.	.	.
.	.	.	4d/
=182	=182	=182	=182
2C/	0r	0r	2e/
2r	.	.	2f/
2.F\	.	.	2c/
.	.	.	2r
4G\	.	.	.
=183	=183	=183	=183
4A\	0r	0r	2.f/
4B\	.	.	.
2c\	.	.	.
.	.	.	4g/
2F\	.	.	4a/
.	.	.	4b\
[2A\	.	.	2cc\
=184	=184	=184	=184
4A\]	0r	0r	2f/
4G\	.	.	.
2c\	.	.	2a/
2B\	.	.	2g/
2c\	.	.	[2cc\
=185	=185	=185	=185
2.d\	0r	0r	2cc\]
.	.	.	2b\
4c\	.	.	.
2A\	.	.	1cc
2B\	.	.	.
=186	=186	=186	=186
1c	0r	0r	2a/
.	.	.	2b\
1F	.	.	1cc
=187	=187	=187	=187
1r	0r	0r	1f
1c	.	.	1r
=188	=188	=188	=188
2A\	0r	0r	1cc
1A	.	.	.
.	.	.	2a/
2F\	.	.	[2a/
=189	=189	=189	=189
2.F\	0r	0r	2a/]
.	.	.	2f/
4G\	.	.	.
[1B-	.	.	2f/
.	.	.	2g/
=190	=190	=190	=190
2B-\]	0r	0r	1.b-i
2A\	.	.	.
2.G\	.	.	.
.	.	.	2a/
4F\	.	.	.
=191	=191	=191	=191
1G	0r	0r	2.g/
.	.	.	4f/
1C	.	.	1g
=192	=192	=192	=192
1BB	0r	0r	1r
2C/	.	.	1c
2E\	.	.	.
=193	=193	=193	=193
1D	0r	0r	1B
2C/	.	.	1c
2E\	.	.	.
=194	=194	=194	=194
2D\	0r	0r	1d
1G	.	.	.
.	.	.	2r
2F\	.	.	[2d/
=195	=195	=195	=195
2.G\	0r	0r	2d/]
.	.	.	2e/
4A\	.	.	.
2B\	.	.	2d/
2c\	.	.	[2g/
=196	=196	=196	=196
2A\	0r	0r	4g/]
.	.	.	4a/
1d	.	.	2f/
.	.	.	2b-\
2c\	.	.	[2a/
=197	=197	=197	=197
2B\	0r	0r	2a/]
2G\	.	.	2.g/
1A	.	.	.
.	.	.	4e/
.	.	.	2f#i/
=198	=198	=198	=198
1G	0r	0r	0g
[1c	.	.	.
=199	=199	=199	=199
1c]	0r	0r	0a
[1d	.	.	.
=200	=200	=200	=200
1d]	0r	0r	1b
[1c	.	.	1cc
=201	=201	=201	=201
1c]	0r	0r	1.a
1B	.	.	.
.	.	.	2g/
=202	=202	=202	=202
1G	0r	0r	1g
[1A	.	.	1r
=203	=203	=203	=203
1A]	0r	0r	0f
[1G	.	.	.
=204	=204	=204	=204
1G]	0r	0r	1.e
1F	.	.	.
.	.	.	2d/
=205	=205	=205	=205
1D	0r	0r	0d
[1E	.	.	.
=206	=206	=206	=206
1E]	0r	0r	1c#i
1D	.	.	[1d
=207	=207	=207	=207
2r	0r	0r	1d]
2.F\	.	.	.
.	.	.	1f
4E\	.	.	.
2D\	.	.	.
=208	=208	=208	=208
1C	0r	0r	2e/
.	.	.	1.c
2E\	.	.	.
2F\	.	.	.
=209	=209	=209	=209
2G\	0r	0r	2e/
2A\	.	.	2f/
2B\	.	.	1g
[2c\	.	.	.
=210	=210	=210	=210
2c\]	0r	0r	2a/
2B\	.	.	2b\
2.A\	.	.	2.cc\
4G\	.	.	4b\
=211	=211	=211	=211
2F\	0r	0r	2a/
2E\	.	.	1g
1D	.	.	.
.	.	.	2f/
=212	=212	=212	=212
1C	0r	0r	2e/
.	.	.	1d
2BB/	.	.	.
2C/	.	.	[2c/
=213	=213	=213	=213
1D	0r	0r	2c/]
.	.	.	2B/
1C	.	.	[1c
=214	=214	=214	=214
1c	0r	0r	2c/]
.	.	.	2e/
1d	.	.	2d/
.	.	.	2f/
=215	=215	=215	=215
2B\	0r	0r	2g/
2A\	.	.	1.a
2.c\	.	.	.
4A\	.	.	.
=216	=216	=216	=216
2B\	0r	0r	2g/
1c	.	.	2e/
.	.	.	1d
2B\	.	.	.
=217	=217	=217	=217
0cl	0r	0r	0cl
!!LO:TX:i:Y=40:rj:t=Osanna ut supra
=||	=||	=||	=||
*-	*-	*-	*-
!!!RDF**kern: l=long note in original notation
!!!RDF**kern: i=editorial accidental
!!!ENC:	Will Watson 16/1/2012
!!!END:	2012/01/16/
!!!EED:	Jesse Rodin
!!!EEV:	2012/03/13/
!!!ONB:	Translated from MusicXML and edited on 2012/03/13/ by Craig Sapp
!!muse2ps: T^@{OPR}^u^@{ONM}{. }@{OTL}^C^@{COM}^i2I100v85,90,85,150Q16
